www/assets/icons/rule_folder.svg

<svg xmlns="http://www.w3.org/2000/svg" width="24" height="24" viewBox="0 0 24 24" fill='currentColor'><path d="M20 6h-8l-2-2H4c-1.1 0-1.99.9-1.99 2L2 18c0 1.1.9 2 2 2h16c1.1 0 2-.9 2-2V8c0-1.1-.9-2-2-2M7.83 16 5 13.17l1.41-1.41 1.41 1.41 3.54-3.54 1.41 1.41zm9.58-3L19 14.59 17.59 16 16 14.41 14.41 16 13 14.59 14.59 13 13 11.41 14.41 10 16 11.59 17.59 10 19 11.41z"/></svg>

<svg width="24" height="24" viewBox="0 0 24 24" xmlns="http://www.w3.org/2000/svg" fill='currentColor'><path d="M20 6H12L10 4H4C2.9 4 2.01 4.9 2.01 6L2 18C2 19.1 2.9 20 4 20H20C21.1 20 22 19.1 22 18V8C22 6.9 21.1 6 20 6ZM7.83 16L5 13.17L6.41 11.76L7.82 13.17L11.36 9.63L12.77 11.04L7.83 16ZM17.41 13L19 14.59L17.59 16L16 14.41L14.41 16L13 14.59L14.59 13L13 11.41L14.41 10L16 11.59L17.59 10L19 11.41L17.41 13Z"/></svg>
